X:62
C:Page 32
T:Earl Moira’s Welcome to Scotland. MBe.62
S:Matthew Betham MS, Towcett Cumbria, 1815
O:England;Cumbria;Towcett
Z:VMP – Hugh Taylor, 2012
T:Loudon’s Bonnie Banks and Braes,aka. MBe.62
M:C
L:1/8
Q:1/4=120
R:.Reel
N:Someone has written after the title, in another hand, “Loudon’s bonnie banks and Braes”
N:NB4-The ‘g’ note is written as a quaver, not a semiquaver
N:NB5-The ‘d’ note is written dotted, and I have removed it.
K:G
D2|:!segno! G<GG<G B<d-~d2|c>AB>G {F/G/} AGFD|G>GG>G B<d-~d2|e>g f/g/a/f/ g/a/b/a/ g<b:|
fgb<g a>gfd|ee{f}g<e d>cBG|f<g~b<g agf(d|e)>”^NB4″g f/a/a/f/ g2 ga/b/|
c'<ab>g ageg|e/d/c/B/ g>B c/B/A/G/ A>B|\
G<GG<G (B<“^NB5″d) d2|f>g .f/.g/.a/.f/ a/g/f/e/ d/c/B/A/!D.S.!|]

